icons/heart.svg

<svg width="24" height="24" viewBox="0 0 24 24" fill="none" xmlns="http://www.w3.org/2000/svg">
<path d="M19.5044 12.6495L12.0083 21L4.51221 12.6495C4.01777 12.1083 3.62831 11.4578 3.36835 10.739C3.10839 10.0202 2.98357 9.2487 3.00173 8.47298C3.0199 7.69727 3.18067 6.93418 3.47391 6.23178C3.76715 5.52939 4.18652 4.90289 4.7056 4.39174C5.22468 3.8806 5.83223 3.49588 6.49 3.26181C7.14776 3.02775 7.84149 2.9494 8.5275 3.03171C9.21351 3.11402 9.87693 3.35521 10.476 3.74008C11.0751 4.12494 11.5968 4.64516 12.0083 5.26797C12.4216 4.64968 12.944 4.13401 13.5426 3.75323C14.1413 3.37244 14.8034 3.13474 15.4875 3.055C16.1715 2.97527 16.8629 3.0552 17.5182 3.28982C18.1736 3.52443 18.7788 3.90867 19.2961 4.41848C19.8134 4.92829 20.2315 5.55271 20.5243 6.25264C20.8172 6.95258 20.9784 7.71297 20.998 8.48622C21.0175 9.25947 20.895 10.0289 20.638 10.7465C20.381 11.464 19.9951 12.1141 19.5044 12.6562" stroke="#1E293B" stroke-width="2" stroke-linecap="round" stroke-linejoin="round"/>
</svg>

<svg
  width="24"
  height="24"
  viewBox="0 0 24 24"
  xmlns="http://www.w3.org/2000/svg"
  fill="none"
  stroke="currentColor"
  stroke-width="2"
  stroke-linecap="round"
  stroke-linejoin="round"
>
  <path d="M19.504 12.65L12.008 21l-7.496-8.35a5.707 5.707 0 0 1-1.144-1.911 6.245 6.245 0 0 1-.366-2.266 6.204 6.204 0 0 1 .472-2.241 5.612 5.612 0 0 1 1.232-1.84 4.88 4.88 0 0 1 1.784-1.13 4.473 4.473 0 0 1 2.037-.23 4.62 4.62 0 0 1 1.949.708c.6.385 1.12.905 1.532 1.528a5.234 5.234 0 0 1 1.535-1.515 4.617 4.617 0 0 1 1.945-.698c.684-.08 1.375 0 2.03.235.656.234 1.26.619 1.778 1.128a5.61 5.61 0 0 1 1.228 1.835 6.249 6.249 0 0 1 .114 4.494 5.713 5.713 0 0 1-1.134 1.91" />
</svg>
